images/icons/face.svg

<svg width="9" height="15" viewBox="0 0 9 15" fill="none" xmlns="http://www.w3.org/2000/svg">
<path d="M7.98284 0.003121L6.03769 0C3.85236 0 2.4401 1.44893 2.4401 3.69152V5.39356H0.484325C0.315323 5.39356 0.178467 5.53057 0.178467 5.69957V8.16563C0.178467 8.33467 0.315479 8.4715 0.484325 8.4715H2.4401V14.6942C2.4401 14.8632 2.57696 15 2.74596 15H5.29769C5.46669 15 5.60355 14.863 5.60355 14.6942V8.4715H7.89031C8.05931 8.4715 8.19617 8.33467 8.19617 8.16563L8.1971 5.69957C8.1971 5.61842 8.1648 5.54072 8.10753 5.48328C8.05026 5.42586 7.97224 5.39356 7.89109 5.39356H5.60355V3.95072C5.60355 3.25723 5.76881 2.90518 6.67219 2.90518L7.98254 2.90472C8.15138 2.90472 8.28824 2.7677 8.28824 2.59886V0.308979C8.28824 0.140289 8.15154 0.0034331 7.98284 0.003121Z" fill="#C3C3C3"/>
</svg>

<svg width="9" height="15" fill="none" xmlns="http://www.w3.org/2000/svg"><path d="M7.983.003L6.038 0C3.852 0 2.44 1.449 2.44 3.692v1.702H.484a.306.306 0 00-.306.306v2.466c0 .169.137.306.306.306H2.44v6.222c0 .17.137.306.306.306h2.552a.306.306 0 00.306-.306V8.471H7.89a.306.306 0 00.306-.305L8.197 5.7a.306.306 0 00-.306-.306H5.604V3.95c0-.694.165-1.046 1.068-1.046h1.31a.306.306 0 00.306-.306V.309a.306.306 0 00-.305-.306z" fill="#C3C3C3"/></svg>
